Newaita-dark/mimetypes/48/text-x-go.svg

<svg height="48pt" viewBox="0 0 48 48" width="48pt" xmlns="http://www.w3.org/2000/svg" xmlns:xlink="http://www.w3.org/1999/xlink"><linearGradient id="a"><stop offset="0" stop-opacity=".27451"/><stop offset="1" stop-opacity="0"/></linearGradient><linearGradient id="b" gradientUnits="userSpaceOnUse" x1="24.807066" x2="24.807066" xlink:href="#a" y1="42.0509045" y2="44.03547050005"/><linearGradient id="c"><stop offset="0" stop-opacity=".313725"/><stop offset=".222222" stop-opacity=".27451"/><stop offset="1" stop-opacity="0"/></linearGradient><radialGradient id="d" cx="450.908936" cy="189.579361" gradientTransform="matrix(.00000026 -.117199 -.210958 -.00000015 74.226854 95.392999)" gradientUnits="userSpaceOnUse" r="21.166656" xlink:href="#c"/><radialGradient id="e" cx="450.908936" cy="189.579361" gradientTransform="matrix(-.00000026 .117199 .210958 .00000015 -27.589573 -11.291218)" gradientUnits="userSpaceOnUse" r="21.166656" xlink:href="#c"/><radialGradient id="f" cx="450.908936" cy="189.579361" gradientTransform="matrix(-.00000026 -.117199 .210958 -.00000015 -27.589573 95.392999)" gradientUnits="userSpaceOnUse" r="21.166656" xlink:href="#c"/><radialGradient id="g" cx="450.908936" cy="189.579361" gradientTransform="matrix(.00000026 .117199 -.210958 .00000015 74.226851 -11.291219)" gradientUnits="userSpaceOnUse" r="21.166656" xlink:href="#c"/><linearGradient id="h" gradientUnits="userSpaceOnUse" x1="23.318674" x2="23.318674" y1="42.05096580616" y2="4.34417266504"><stop offset="0" stop-color="#b0bec5"/><stop offset="1" stop-color="#cfd8dc"/></linearGradient><linearGradient id="i" gradientTransform="matrix(.0448412 0 0 .164078 22.563634 -24.789434)" gradientUnits="userSpaceOnUse" x1="249.189423" x2="249.189423" xlink:href="#a" y1="233.5" y2="254.666687"/><linearGradient id="j"><stop offset="0" stop-color="#78909c"/><stop offset="1" stop-color="#90a4ae"/></linearGradient><linearGradient id="k" gradientUnits="userSpaceOnUse" x1="31.7530469999" x2="31.7530469999" xlink:href="#j" y1="42.0509015" y2="4.34415649995"/><linearGradient id="l" gradientUnits="userSpaceOnUse" x1="960" x2="960" xlink:href="#j" y1="1695.118164" y2="175.118118"/><path d="m11.90625 42.050781h22.824219v1.984375h-22.824219zm0 0" fill="url(#b)"/><path d="m34.730469 42.050781h3.96875v-1.984375h-3.96875zm0 0" fill="url(#d)"/><path d="m11.90625 42.050781h-3.96875v1.984375h3.96875zm0 0" fill="url(#e)"/><path d="m11.90625 42.050781h-3.96875v-1.984375h3.96875zm0 0" fill="url(#f)"/><path d="m34.730469 42.050781h3.96875v1.984375h-3.96875zm0 0" fill="url(#g)"/><path d="m27.8125 4.34375h-17.890625c-1.097656 0-1.984375.886719-1.984375 1.984375v33.738281c0 1.097656.886719 1.984375 1.984375 1.984375h26.792969c1.097656 0 1.984375-.886719 1.984375-1.984375v-24.835937zm0 0" fill="url(#h)"/><path d="m27.785156 13.523438h9.425782l1.488281 1.488281v1.984375h-10.914063zm0 0" fill="url(#i)"/><path d="m7.9375 39.296875v.769531c0 1.097656.886719 1.984375 1.984375 1.984375h26.792969c1.097656 0 1.984375-.886719 1.984375-1.984375v-.769531c0 1.097656-.886719 1.984375-1.984375 1.984375h-26.792969c-1.097656 0-1.984375-.886719-1.984375-1.984375zm0 0" fill-opacity=".235294"/><path d="m9.921875 4.34375c-1.097656 0-1.984375.886719-1.984375 1.984375v.746094c0-1.101563.886719-1.984375 1.984375-1.984375h17.890625l10.886719 10.882812v-.742187l-10.886719-10.886719zm0 0" fill="#fff" fill-opacity=".313725"/><path d="m38.699219 15.230469-10.886719-10.886719v8.902344c0 1.097656.886719 1.984375 1.984375 1.984375zm0 0" fill="url(#k)"/><path d="m27.8125 12.777344v.46875c0 1.097656.886719 1.984375 1.984375 1.984375h8.902344l-.46875-.46875h-8.433594c-1.097656 0-1.984375-.882813-1.984375-1.984375zm0 0" fill-opacity=".235294"/><path d="m27.8125 4.34375v.746094l10.140625 10.140625h.746094zm0 0" fill="#fff" fill-opacity=".392157"/><path d="m27.8125 4.203125c-.078125 0-.140625.0625-.140625.140625v8.902344c0 1.175781.949219 2.125 2.125 2.125h8.902344c.058593 0 .109375-.035156.128906-.085938.023437-.054687.011719-.113281-.03125-.15625l-10.882813-10.882812c-.027343-.027344-.066406-.042969-.101562-.042969zm.140625.480469 10.40625 10.40625h-8.5625c-1.023437 0-1.84375-.820313-1.84375-1.84375zm0 0" fill="#212121"/><path d="m9.921875 4.203125c-1.175781 0-2.125.949219-2.125 2.125v33.738281c0 1.175782.949219 2.125 2.125 2.125h26.792969c1.175781 0 2.125-.949218 2.125-2.125v-24.835937c0-.039063-.015625-.074219-.042969-.101563l-10.882813-10.882812c-.027343-.027344-.0625-.042969-.101562-.042969zm0 .28125h17.832031l10.804688 10.804687v24.777344c0 1.023438-.820313 1.84375-1.84375 1.84375h-26.792969c-1.023437 0-1.84375-.820312-1.84375-1.84375v-33.738281c0-1.023437.820313-1.84375 1.84375-1.84375zm0 0" fill="#212121"/><path d="m708.908718 715.049864c-34.169967 0-61.883858 27.71389-61.883858 61.883857s27.713891 61.883858 61.883858 61.883858 61.883857-27.713891 61.883857-61.883858-27.71389-61.883857-61.883857-61.883857zm453.500024 0c-34.169967 0-61.726392 27.71389-61.726392 61.883857s27.556425 61.883858 61.726392 61.883858 61.883857-27.713891 61.883857-61.883858-27.71389-61.883857-61.883857-61.883857zm-475.230234 226.435081c-17.006251.314931-31.965453 10.865105-37.949134 26.769099-6.141146 16.533855-1.259722 34.957293 12.124827 46.137329 39.681253 34.012502 83.771533 59.521878 130.066327 76.528129v119.043756c0 22.832467 32.122918 41.255905 72.119101 41.255905 39.996182 0 72.119101-18.423438 72.119101-41.255905 0 22.832467 27.556425 41.255905 61.883857 41.255905h20.627953c34.169967 0 61.883857-18.423438 61.883857-41.255905v-119.043756c46.137329-17.006251 90.227609-42.515627 129.908861-76.528129 11.337501-9.447917 16.69132-24.40712 14.014411-39.051391-2.67691-14.486806-12.912154-26.611634-26.926564-31.493057-14.014411-4.881424-29.603474-1.732119-40.783509 8.030729-129.593931 111.013027-311.623802 111.013027-441.217732 0-7.243403-6.456077-16.533855-10.077778-26.296703-10.392709-.472396 0-1.102257 0-1.574653 0zm0 0" fill="url(#l)" stroke="#1e1e1e" stroke-linecap="round" stroke-linejoin="round" stroke-width="11.68887" transform="scale(.0248071)"/></svg>

<?xml version="1.0" encoding="UTF-8"?>
<svg xmlns="http://www.w3.org/2000/svg" xmlns:xlink="http://www.w3.org/1999/xlink" width="48px" height="48px" viewBox="0 0 48 48" version="1.1">
<defs>
<linearGradient id="linear0" gradientUnits="userSpaceOnUse" x1="254" y1="233.5" x2="254" y2="254.666672" gradientTransform="matrix(0.093759,0,0,0.093759,0.99228,20.158178)">
<stop offset="0" style="stop-color:rgb(0%,0%,0%);stop-opacity:0.27451;"/>
<stop offset="1" style="stop-color:rgb(0%,0%,0%);stop-opacity:0;"/>
</linearGradient>
<radialGradient id="radial0" gradientUnits="userSpaceOnUse" cx="450.908936" cy="189.579361" fx="450.908936" fy="189.579361" r="21.166656" gradientTransform="matrix(0.000000261256,-0.117199,-0.210958,-0.000000152308,74.226854,95.392999)">
<stop offset="0" style="stop-color:rgb(0%,0%,0%);stop-opacity:0.313726;"/>
<stop offset="0.222222" style="stop-color:rgb(0%,0%,0%);stop-opacity:0.27451;"/>
<stop offset="1" style="stop-color:rgb(0%,0%,0%);stop-opacity:0;"/>
</radialGradient>
<radialGradient id="radial1" gradientUnits="userSpaceOnUse" cx="450.908936" cy="189.579361" fx="450.908936" fy="189.579361" r="21.166656" gradientTransform="matrix(-0.000000261256,0.117199,0.210958,0.000000152308,-27.589573,-11.291218)">
<stop offset="0" style="stop-color:rgb(0%,0%,0%);stop-opacity:0.313726;"/>
<stop offset="0.222222" style="stop-color:rgb(0%,0%,0%);stop-opacity:0.27451;"/>
<stop offset="1" style="stop-color:rgb(0%,0%,0%);stop-opacity:0;"/>
</radialGradient>
<radialGradient id="radial2" gradientUnits="userSpaceOnUse" cx="450.908936" cy="189.579361" fx="450.908936" fy="189.579361" r="21.166656" gradientTransform="matrix(-0.000000261256,-0.117199,0.210958,-0.000000152308,-27.589573,95.392999)">
<stop offset="0" style="stop-color:rgb(0%,0%,0%);stop-opacity:0.313726;"/>
<stop offset="0.222222" style="stop-color:rgb(0%,0%,0%);stop-opacity:0.27451;"/>
<stop offset="1" style="stop-color:rgb(0%,0%,0%);stop-opacity:0;"/>
</radialGradient>
<radialGradient id="radial3" gradientUnits="userSpaceOnUse" cx="450.908936" cy="189.579361" fx="450.908936" fy="189.579361" r="21.166656" gradientTransform="matrix(0.000000261256,0.117199,-0.210958,0.000000152308,74.226851,-11.291219)">
<stop offset="0" style="stop-color:rgb(0%,0%,0%);stop-opacity:0.313726;"/>
<stop offset="0.222222" style="stop-color:rgb(0%,0%,0%);stop-opacity:0.27451;"/>
<stop offset="1" style="stop-color:rgb(0%,0%,0%);stop-opacity:0;"/>
</radialGradient>
<linearGradient id="linear1" gradientUnits="userSpaceOnUse" x1="940" y1="1695.118164" x2="940" y2="175.118118" gradientTransform="matrix(0.0248071,0,0,0.0248071,0,0.00000000000000282)">
<stop offset="0" style="stop-color:rgb(69.01961%,74.509805%,77.254903%);stop-opacity:1;"/>
<stop offset="1" style="stop-color:rgb(81.176472%,84.705883%,86.274511%);stop-opacity:1;"/>
</linearGradient>
<linearGradient id="linear2" gradientUnits="userSpaceOnUse" x1="249.189423" y1="233.5" x2="249.189423" y2="254.666687" gradientTransform="matrix(0.0448412,0,0,0.164078,22.563634,-24.789434)">
<stop offset="0" style="stop-color:rgb(0%,0%,0%);stop-opacity:0.27451;"/>
<stop offset="1" style="stop-color:rgb(0%,0%,0%);stop-opacity:0;"/>
</linearGradient>
<linearGradient id="linear3" gradientUnits="userSpaceOnUse" x1="338.666656" y1="233.5" x2="338.666656" y2="-168.666672" gradientTransform="matrix(0.093759,0,0,0.093759,0,20.158175)">
<stop offset="0" style="stop-color:rgb(47.058824%,56.470591%,61.176473%);stop-opacity:1;"/>
<stop offset="1" style="stop-color:rgb(56.470591%,64.313728%,68.235296%);stop-opacity:1;"/>
</linearGradient>
<linearGradient id="linear4" gradientUnits="userSpaceOnUse" x1="960" y1="1695.118164" x2="960" y2="175.118118" gradientTransform="matrix(1,0,0,1,0,-0)">
<stop offset="0" style="stop-color:rgb(47.058824%,56.470591%,61.176473%);stop-opacity:1;"/>
<stop offset="1" style="stop-color:rgb(56.470591%,64.313728%,68.235296%);stop-opacity:1;"/>
</linearGradient>
</defs>
<g id="surface1">
<path style=" stroke:none;fill-rule:nonzero;fill:url(#linear0);" d="M 11.90625 42.050781 L 34.730469 42.050781 L 34.730469 44.035156 L 11.90625 44.035156 Z M 11.90625 42.050781 "/>
<path style=" stroke:none;fill-rule:nonzero;fill:url(#radial0);" d="M 34.730469 42.050781 L 38.699219 42.050781 L 38.699219 40.066406 L 34.730469 40.066406 Z M 34.730469 42.050781 "/>
<path style=" stroke:none;fill-rule:nonzero;fill:url(#radial1);" d="M 11.90625 42.050781 L 7.9375 42.050781 L 7.9375 44.035156 L 11.90625 44.035156 Z M 11.90625 42.050781 "/>
<path style=" stroke:none;fill-rule:nonzero;fill:url(#radial2);" d="M 11.90625 42.050781 L 7.9375 42.050781 L 7.9375 40.066406 L 11.90625 40.066406 Z M 11.90625 42.050781 "/>
<path style=" stroke:none;fill-rule:nonzero;fill:url(#radial3);" d="M 34.730469 42.050781 L 38.699219 42.050781 L 38.699219 44.035156 L 34.730469 44.035156 Z M 34.730469 42.050781 "/>
<path style=" stroke:none;fill-rule:nonzero;fill:url(#linear1);" d="M 27.8125 4.34375 L 9.921875 4.34375 C 8.824219 4.34375 7.9375 5.230469 7.9375 6.328125 L 7.9375 40.066406 C 7.9375 41.164062 8.824219 42.050781 9.921875 42.050781 L 36.714844 42.050781 C 37.8125 42.050781 38.699219 41.164062 38.699219 40.066406 L 38.699219 15.230469 Z M 27.8125 4.34375 "/>
<path style=" stroke:none;fill-rule:nonzero;fill:url(#linear2);" d="M 27.785156 13.523438 L 37.210938 13.523438 L 38.699219 15.011719 L 38.699219 16.996094 L 27.785156 16.996094 Z M 27.785156 13.523438 "/>
<path style=" stroke:none;fill-rule:nonzero;fill:rgb(0%,0%,0%);fill-opacity:0.235294;" d="M 7.9375 39.296875 L 7.9375 40.066406 C 7.9375 41.164062 8.824219 42.050781 9.921875 42.050781 L 36.714844 42.050781 C 37.8125 42.050781 38.699219 41.164062 38.699219 40.066406 L 38.699219 39.296875 C 38.699219 40.394531 37.8125 41.28125 36.714844 41.28125 L 9.921875 41.28125 C 8.824219 41.28125 7.9375 40.394531 7.9375 39.296875 Z M 7.9375 39.296875 "/>
<path style=" stroke:none;fill-rule:nonzero;fill:rgb(100%,100%,100%);fill-opacity:0.313726;" d="M 9.921875 4.34375 C 8.824219 4.34375 7.9375 5.230469 7.9375 6.328125 L 7.9375 7.074219 C 7.9375 5.972656 8.824219 5.089844 9.921875 5.089844 L 27.8125 5.089844 L 38.699219 15.972656 L 38.699219 15.230469 L 27.8125 4.34375 Z M 9.921875 4.34375 "/>
<path style=" stroke:none;fill-rule:nonzero;fill:url(#linear3);" d="M 38.699219 15.230469 L 27.8125 4.34375 L 27.8125 13.246094 C 27.8125 14.34375 28.699219 15.230469 29.796875 15.230469 Z M 38.699219 15.230469 "/>
<path style=" stroke:none;fill-rule:nonzero;fill:rgb(0%,0%,0%);fill-opacity:0.235294;" d="M 27.8125 12.777344 L 27.8125 13.246094 C 27.8125 14.34375 28.699219 15.230469 29.796875 15.230469 L 38.699219 15.230469 L 38.230469 14.761719 L 29.796875 14.761719 C 28.699219 14.761719 27.8125 13.878906 27.8125 12.777344 Z M 27.8125 12.777344 "/>
<path style=" stroke:none;fill-rule:nonzero;fill:rgb(100%,100%,100%);fill-opacity:0.392157;" d="M 27.8125 4.34375 L 27.8125 5.089844 L 37.953125 15.230469 L 38.699219 15.230469 Z M 27.8125 4.34375 "/>
<path style=" stroke:none;fill-rule:nonzero;fill:rgb(12.941177%,12.941177%,12.941177%);fill-opacity:1;" d="M 27.8125 4.203125 C 27.734375 4.203125 27.671875 4.265625 27.671875 4.34375 L 27.671875 13.246094 C 27.671875 14.421875 28.621094 15.371094 29.796875 15.371094 L 38.699219 15.371094 C 38.757812 15.371094 38.808594 15.335938 38.828125 15.285156 C 38.851562 15.230469 38.839844 15.171875 38.796875 15.128906 L 27.914062 4.246094 C 27.886719 4.21875 27.847656 4.203125 27.8125 4.203125 Z M 27.953125 4.683594 L 38.359375 15.089844 L 29.796875 15.089844 C 28.773438 15.089844 27.953125 14.269531 27.953125 13.246094 Z M 27.953125 4.683594 "/>
<path style=" stroke:none;fill-rule:nonzero;fill:rgb(12.941177%,12.941177%,12.941177%);fill-opacity:1;" d="M 9.921875 4.203125 C 8.746094 4.203125 7.796875 5.152344 7.796875 6.328125 L 7.796875 40.066406 C 7.796875 41.242188 8.746094 42.191406 9.921875 42.191406 L 36.714844 42.191406 C 37.890625 42.191406 38.839844 41.242188 38.839844 40.066406 L 38.839844 15.230469 C 38.839844 15.191406 38.824219 15.15625 38.796875 15.128906 L 27.914062 4.246094 C 27.886719 4.21875 27.851562 4.203125 27.8125 4.203125 Z M 9.921875 4.484375 L 27.753906 4.484375 L 38.558594 15.289062 L 38.558594 40.066406 C 38.558594 41.089844 37.738281 41.910156 36.714844 41.910156 L 9.921875 41.910156 C 8.898438 41.910156 8.078125 41.089844 8.078125 40.066406 L 8.078125 6.328125 C 8.078125 5.304688 8.898438 4.484375 9.921875 4.484375 Z M 9.921875 4.484375 "/>
<path style="fill-rule:nonzero;fill:url(#linear4);stroke-width:11.68887;stroke-linecap:round;stroke-linejoin:round;stroke:rgb(11.764706%,11.764706%,11.764706%);stroke-opacity:1;stroke-miterlimit:4;" d="M 708.908718 715.049864 C 674.738751 715.049864 647.02486 742.763754 647.02486 776.933721 C 647.02486 811.103688 674.738751 838.817579 708.908718 838.817579 C 743.078685 838.817579 770.792575 811.103688 770.792575 776.933721 C 770.792575 742.763754 743.078685 715.049864 708.908718 715.049864 Z M 1162.408742 715.049864 C 1128.238775 715.049864 1100.68235 742.763754 1100.68235 776.933721 C 1100.68235 811.103688 1128.238775 838.817579 1162.408742 838.817579 C 1196.578709 838.817579 1224.292599 811.103688 1224.292599 776.933721 C 1224.292599 742.763754 1196.578709 715.049864 1162.408742 715.049864 Z M 687.178508 941.484945 C 670.172257 941.799876 655.213055 952.35005 649.229374 968.254044 C 643.088228 984.787899 647.969652 1003.211337 661.354201 1014.391373 C 701.035454 1048.403875 745.125734 1073.913251 791.420528 1090.919502 L 791.420528 1209.963258 C 791.420528 1232.795725 823.543446 1251.219163 863.539629 1251.219163 C 903.535811 1251.219163 935.65873 1232.795725 935.65873 1209.963258 C 935.65873 1232.795725 963.215155 1251.219163 997.542587 1251.219163 L 1018.17054 1251.219163 C 1052.340507 1251.219163 1080.054397 1232.795725 1080.054397 1209.963258 L 1080.054397 1090.919502 C 1126.191726 1073.913251 1170.282006 1048.403875 1209.963258 1014.391373 C 1221.300759 1004.943456 1226.654578 989.984253 1223.977669 975.339982 C 1221.300759 960.853176 1211.065515 948.728348 1197.051105 943.846925 C 1183.036694 938.965501 1167.447631 942.114806 1156.267596 951.877654 C 1026.673665 1062.890681 844.643794 1062.890681 715.049864 951.877654 C 707.806461 945.421577 698.516009 941.799876 688.753161 941.484945 C 688.280765 941.484945 687.650904 941.484945 687.178508 941.484945 Z M 687.178508 941.484945 " transform="matrix(0.0248071,0,0,0.0248071,0,0)"/>
</g>
</svg>
